svg/computer.svg

<svg width="24" height="24" viewBox="0 0 24 24" fill="none" xmlns="http://www.w3.org/2000/svg">
<path d="M2 5C2 3.89543 2.89543 3 4 3H20C21.1046 3 22 3.89543 22 5V16C22 17.1046 21.1046 18 20 18H13V20H16C16.5523 20 17 20.4477 17 21C17 21.5523 16.5523 22 16 22H8C7.44772 22 7 21.5523 7 21C7 20.4477 7.44772 20 8 20H11V18H4C2.89543 18 2 17.1046 2 16V5ZM20 16V5H4V16H20Z" fill="#0D0D0D"/>
</svg>

<svg width="24" height="24" fill="none" xmlns="http://www.w3.org/2000/svg"><path d="M2 5a2 2 0 012-2h16a2 2 0 012 2v11a2 2 0 01-2 2h-7v2h3a1 1 0 110 2H8a1 1 0 110-2h3v-2H4a2 2 0 01-2-2V5zm18 11V5H4v11h16z" fill="#0D0D0D"/></svg>
